X:427
T: Wer sich des Maien freue (5-23), S. 42
N: P0697
O: Lothringen
S: MERKELBACH-PINCK, Angelika: Verklingende Weisen, Bd 5, Kassel 1962]
R: geistliches, religiöses Lied]
M: 4/4
L: 1/8
K: G
BA | G2A2BABc | d3ed2
Bc | d2c2BABA | G4z2
BA | G2A2BABc | d3ed2
Bc | d2c2B2A2 | G6Bc | d6
Bc | d2GAB2A2 | G4z2

